X:0353
T:La Bissette.
M:2/4
L:1/8
Q:1/4=132
I: :: :: :: ::
Z:Jack Campin * www.campin.me.uk * 2009
K:G
B2 cB/c/|d2 zd|efge|eddc             |B2  cB/c/|d2       zd|ecAF|G2G2::
Dd dc   |cBAG |BAGF|G/F/G/A/ GG      |Dd  dc   |cBAG       |BAGF|G2G2::
B2 B2   |BA A2|c2c2|cB       B2      |B.d.d.d  |e/d/e/f/ gd|gdcB|B2A2::
BdBd    |ce ce|dfdf|g/f/e/d/ c/B/A/G/|BdBd     |cece       |dfdf|g2g2:|

